dist/assets/img/main/user.svg

<svg width="56" height="56" viewBox="0 0 56 56" fill="none" xmlns="http://www.w3.org/2000/svg">
<g clip-path="url(#clip0)">
<path d="M55.9785 28.4897C55.9785 13.3312 43.6451 0.99791 28.4867 0.99791C13.3282 0.99791 0.994904 13.3312 0.994904 28.4897C0.994904 36.4963 4.43787 43.7131 9.91823 48.7416L9.89224 48.7646L10.784 49.5164C10.842 49.5654 10.9049 49.6054 10.9629 49.6533C11.4368 50.0462 11.9276 50.4191 12.4275 50.78C12.5894 50.897 12.7514 51.0139 12.9163 51.1279C13.4502 51.4958 13.998 51.8447 14.5578 52.1756C14.6798 52.2476 14.8028 52.3176 14.9257 52.3875C15.5386 52.7364 16.1644 53.0653 16.8052 53.3672C16.8522 53.3892 16.9001 53.4092 16.9471 53.4312C19.0355 54.4019 21.2648 55.1147 23.5961 55.5356C23.6571 55.5466 23.7181 55.5576 23.7801 55.5686C24.5039 55.6935 25.2356 55.7935 25.9764 55.8605C26.0664 55.8685 26.1564 55.8735 26.2473 55.8815C26.9851 55.9425 27.7309 55.9815 28.4867 55.9815C29.2355 55.9815 29.9742 55.9425 30.708 55.8835C30.801 55.8755 30.894 55.8705 30.9869 55.8625C31.7217 55.7955 32.4475 55.6985 33.1643 55.5756C33.2263 55.5646 33.2892 55.5536 33.3512 55.5416C35.6475 55.1297 37.8449 54.4329 39.9063 53.4872C39.9822 53.4522 40.0592 53.4192 40.1352 53.3832C40.752 53.0933 41.3548 52.7804 41.9457 52.4475C42.0926 52.3645 42.2386 52.2806 42.3845 52.1946C42.9224 51.8777 43.4512 51.5468 43.965 51.1949C44.15 51.0689 44.3309 50.936 44.5139 50.804C44.9528 50.4881 45.3836 50.1622 45.8025 49.8213C45.8955 49.7463 45.9954 49.6813 46.0864 49.6044L47.0011 48.8406L46.9741 48.8176C52.5025 43.7871 55.9785 36.5373 55.9785 28.4897ZM2.99431 28.4897C2.99431 14.4329 14.4299 2.99731 28.4867 2.99731C42.5435 2.99731 53.979 14.4329 53.979 28.4897C53.979 36.0644 50.655 42.8744 45.3926 47.547C45.0987 47.344 44.8028 47.1621 44.4999 47.0101L36.0354 42.7784C35.2756 42.3985 34.8038 41.6347 34.8038 40.786V37.8299C34.9997 37.588 35.2067 37.314 35.4206 37.0131C36.5163 35.4656 37.395 33.7441 38.0358 31.8917C39.3024 31.2898 40.1202 30.0282 40.1202 28.6036V25.0597C40.1202 24.193 39.8023 23.3522 39.2335 22.6914V18.0258C39.2854 17.507 39.4694 14.5788 37.351 12.1636C35.5086 10.0602 32.5265 8.99552 28.4867 8.99552C24.4469 8.99552 21.4648 10.0602 19.6223 12.1626C17.504 14.5778 17.6879 17.506 17.7399 18.0248V22.6904C17.1721 23.3512 16.8532 24.192 16.8532 25.0587V28.6026C16.8532 29.7033 17.347 30.73 18.1928 31.4228C19.0025 34.5949 20.669 36.9961 21.2848 37.8099V40.703C21.2848 41.5188 20.84 42.2686 20.1232 42.6604L12.2185 46.9722C11.9666 47.1091 11.7167 47.2691 11.4668 47.448C6.26933 42.7774 2.99431 36.0094 2.99431 28.4897ZM43.4412 49.1155C43.0913 49.3694 42.7354 49.6154 42.3745 49.8503C42.2086 49.9583 42.0436 50.0662 41.8747 50.1712C41.4028 50.4631 40.923 50.741 40.4331 51.0009C40.3251 51.0579 40.2162 51.1119 40.1072 51.1679C38.9815 51.7447 37.8169 52.2406 36.6202 52.6435C36.5783 52.6575 36.5363 52.6724 36.4933 52.6864C35.8665 52.8944 35.2317 53.0793 34.5899 53.2383C34.5879 53.2383 34.5858 53.2393 34.5839 53.2393C33.936 53.3992 33.2802 53.5322 32.6204 53.6412C32.6024 53.6442 32.5844 53.6482 32.5665 53.6512C31.9456 53.7521 31.3198 53.8251 30.692 53.8801C30.581 53.8901 30.4701 53.8971 30.3581 53.9051C29.7373 53.9521 29.1135 53.9821 28.4867 53.9821C27.8529 53.9821 27.2211 53.9511 26.5922 53.9041C26.4833 53.8961 26.3743 53.8891 26.2663 53.8791C25.6325 53.8231 25.0017 53.7481 24.3769 53.6462C24.3489 53.6412 24.3209 53.6362 24.2929 53.6312C22.9713 53.4102 21.6707 53.0853 20.4041 52.6604C20.3651 52.6475 20.3251 52.6335 20.2861 52.6205C19.6573 52.4065 19.0355 52.1696 18.4247 51.9077C18.4207 51.9057 18.4157 51.9037 18.4117 51.9017C17.8339 51.6528 17.267 51.3768 16.7072 51.0859C16.6342 51.0479 16.5602 51.0119 16.4883 50.973C15.9774 50.7 15.4776 50.4051 14.9847 50.0972C14.8388 50.0052 14.6938 49.9123 14.5498 49.8183C14.096 49.5214 13.6481 49.2125 13.2122 48.8856C13.1673 48.8516 13.1243 48.8156 13.0793 48.7816C13.1113 48.7636 13.1433 48.7456 13.1753 48.7276L21.0799 44.4159C22.4395 43.6741 23.2842 42.2516 23.2842 40.703L23.2832 37.1021L23.0533 36.8242C23.0313 36.7992 20.87 34.17 20.0532 30.61L19.9622 30.2142L19.6213 29.9932C19.1405 29.6823 18.8526 29.1625 18.8526 28.6016V25.0577C18.8526 24.5928 19.0495 24.16 19.4094 23.8351L19.7393 23.5372V17.9688L19.7303 17.8379C19.7273 17.8139 19.4324 15.4096 21.1259 13.4792C22.5714 11.8317 25.0487 10.9949 28.4867 10.9949C31.9117 10.9949 34.3809 11.8247 35.8305 13.4602C37.522 15.3706 37.2451 17.8199 37.2431 17.8399L37.2341 23.5392L37.564 23.8371C37.9229 24.161 38.1208 24.5948 38.1208 25.0597V28.6036C38.1208 29.3164 37.6359 29.9632 36.9401 30.1782L36.4433 30.3311L36.2833 30.826C35.6935 32.6584 34.8538 34.3509 33.7881 35.8565C33.5262 36.2264 33.2712 36.5543 33.0523 36.8052L32.8044 37.0881V40.786C32.8044 42.3975 33.7001 43.8471 35.1417 44.5669L43.6062 48.7986C43.6601 48.8256 43.7131 48.8536 43.7661 48.8816C43.6591 48.9626 43.5492 49.0375 43.4412 49.1155Z" fill="black"/>
</g>
<defs>
<clipPath id="clip0">
<rect width="54.9835" height="54.9835" fill="white" transform="translate(0.994904 0.99791)"/>
</clipPath>
</defs>
</svg>

<svg width="56" height="56" fill="none" xmlns="http://www.w3.org/2000/svg"><g clip-path="url(#clip0)"><path d="M55.978 28.49C55.978 13.33 43.645.998 28.487.998 13.328.998.995 13.33.995 28.49c0 8.006 3.443 15.223 8.923 20.252l-.026.023.892.751c.058.05.12.09.179.137.474.393.965.766 1.465 1.127.161.117.323.234.488.348a28.022 28.022 0 003.89 2.24l.141.063a27.246 27.246 0 006.65 2.105l.183.033a27.45 27.45 0 002.196.291l.271.022c.738.06 1.484.1 2.24.1.748 0 1.487-.04 2.221-.099.093-.008.186-.013.279-.02a27.84 27.84 0 002.177-.287l.187-.034a27.246 27.246 0 006.555-2.055c.076-.035.153-.068.23-.104a27.649 27.649 0 002.248-1.188 27.463 27.463 0 001.581-1c.185-.126.366-.259.549-.391.439-.316.87-.642 1.288-.983.093-.075.193-.14.284-.217l.915-.763-.027-.023c5.529-5.03 9.005-12.28 9.005-20.328zm-52.984 0c0-14.057 11.436-25.493 25.493-25.493 14.057 0 25.492 11.436 25.492 25.493 0 7.574-3.324 14.384-8.586 19.057a7.49 7.49 0 00-.893-.537l-8.465-4.232a2.216 2.216 0 01-1.231-1.992V37.83c.196-.242.403-.516.617-.817a20.37 20.37 0 002.615-5.121 3.628 3.628 0 002.084-3.288V25.06c0-.867-.318-1.708-.886-2.369v-4.665c.051-.519.235-3.447-1.883-5.862-1.842-2.104-4.825-3.168-8.864-3.168-4.04 0-7.022 1.064-8.865 3.167-2.118 2.415-1.934 5.343-1.882 5.862v4.665a3.643 3.643 0 00-.887 2.369v3.544c0 1.1.494 2.127 1.34 2.82.81 3.172 2.476 5.573 3.092 6.387v2.893a2.23 2.23 0 01-1.162 1.957l-7.905 4.312a7.22 7.22 0 00-.751.476c-5.198-4.67-8.473-11.439-8.473-18.958zm40.447 20.625c-.35.254-.706.5-1.067.735-.165.108-.33.216-.5.321-.471.292-.951.57-1.44.83-.109.057-.218.11-.327.167a25.479 25.479 0 01-3.487 1.476l-.127.042a25.56 25.56 0 01-1.903.552l-.006.001a25.59 25.59 0 01-1.964.402l-.053.01c-.621.101-1.247.174-1.875.23-.111.01-.222.016-.334.024a24.78 24.78 0 01-1.871.077 25.42 25.42 0 01-1.895-.078c-.109-.008-.218-.015-.326-.025a25.9 25.9 0 01-1.89-.233l-.083-.015a25.401 25.401 0 01-3.889-.97 25.89 25.89 0 01-1.98-.753l-.012-.006a26.08 26.08 0 01-1.705-.816c-.073-.038-.147-.074-.219-.113a25.743 25.743 0 01-1.938-1.155 25.443 25.443 0 01-1.338-.932l-.133-.104.096-.054 7.905-4.312a4.227 4.227 0 002.204-3.713v-3.6l-.23-.279c-.023-.025-2.184-2.654-3-6.214l-.092-.396-.34-.22a1.657 1.657 0 01-.77-1.392v-3.544c0-.465.197-.898.557-1.223l.33-.298V17.97l-.009-.131c-.003-.024-.298-2.428 1.396-4.359 1.445-1.647 3.923-2.484 7.36-2.484 3.426 0 5.895.83 7.345 2.465 1.691 1.91 1.414 4.36 1.412 4.38l-.009 5.7.33.297c.359.324.557.758.557 1.223v3.544a1.67 1.67 0 01-1.18 1.574l-.498.153-.16.495a18.495 18.495 0 01-2.495 5.03c-.262.37-.517.698-.736.95l-.248.282v3.698c0 1.611.896 3.061 2.338 3.78l8.464 4.233.16.083c-.107.08-.217.156-.325.233z" fill="#000"/></g><defs><clipPath id="clip0"><path fill="#fff" transform="translate(.995 .998)" d="M0 0h54.983v54.983H0z"/></clipPath></defs></svg>
